cssgg/toggle-on.svg

<svg
  width="24"
  height="24"
  viewBox="0 0 24 24"
  fill="none"
  xmlns="http://www.w3.org/2000/svg"
>
  <path
    d="M7 15C5.34315 15 4 13.6569 4 12C4 10.3431 5.34315 9 7 9C8.65685 9 10 10.3431 10 12C10 13.6569 8.65685 15 7 15Z"
    fill="currentColor"
  />
  <path
    fill-rule="evenodd"
    clip-rule="evenodd"
    d="M24 12C24 8.13401 20.866 5 17 5H7C3.13401 5 0 8.13401 0 12C0 15.866 3.13401 19 7 19H17C20.866 19 24 15.866 24 12ZM17 7H7C4.23858 7 2 9.23858 2 12C2 14.7614 4.23858 17 7 17H17C19.7614 17 22 14.7614 22 12C22 9.23858 19.7614 7 17 7Z"
    fill="currentColor"
  />
</svg>

<svg viewBox="0 0 24 24" xmlns="http://www.w3.org/2000/svg"><g><path d="M7 15c-1.66 0-3-1.35-3-3 0-1.66 1.34-3 3-3 1.65 0 3 1.34 3 3 0 1.65-1.35 3-3 3Z"/><path fill-rule="evenodd" d="M24 12c0-3.87-3.14-7-7-7H7c-3.87 0-7 3.13-7 7 0 3.86 3.13 7 7 7h10c3.86 0 7-3.14 7-7Zm-7-5H7c-2.77 0-5 2.23-5 5 0 2.76 2.23 5 5 5h10c2.76 0 5-2.24 5-5 0-2.77-2.24-5-5-5Z"/></g></svg>
